packages/opendesign/src/icons/svgs/fill/ellipsis.svg

<?xml version="1.0" encoding="UTF-8"?>
<svg width="24px" height="24px" viewBox="0 0 24 24" version="1.1" xmlns="http://www.w3.org/2000/svg" xmlns:xlink="http://www.w3.org/1999/xlink">
    <title>ellipsis</title>
    <g id="ellipsis" stroke="none" stroke-width="1" fill="none" fill-rule="evenodd">
        <path d="M5,10.5 C5.82842712,10.5 6.5,11.1715729 6.5,12 C6.5,12.8284271 5.82842712,13.5 5,13.5 C4.17157288,13.5 3.5,12.8284271 3.5,12 C3.5,11.1715729 4.17157288,10.5 5,10.5 Z M12,10.5 C12.8284271,10.5 13.5,11.1715729 13.5,12 C13.5,12.8284271 12.8284271,13.5 12,13.5 C11.1715729,13.5 10.5,12.8284271 10.5,12 C10.5,11.1715729 11.1715729,10.5 12,10.5 Z M19,10.5 C19.8284271,10.5 20.5,11.1715729 20.5,12 C20.5,12.8284271 19.8284271,13.5 19,13.5 C18.1715729,13.5 17.5,12.8284271 17.5,12 C17.5,11.1715729 18.1715729,10.5 19,10.5 Z" id="path1" fill="#000000"></path>
    </g>
</svg>

<!-- Generated by IcoMoon.io -->
<svg version="1.1" xmlns="http://www.w3.org/2000/svg" width="24" height="24" viewBox="0 0 24 24">
<title>ellipsis</title>
<path d="M5 10.5c0.828 0 1.5 0.672 1.5 1.5s-0.672 1.5-1.5 1.5c-0.828 0-1.5-0.672-1.5-1.5s0.672-1.5 1.5-1.5zM12 10.5c0.828 0 1.5 0.672 1.5 1.5s-0.672 1.5-1.5 1.5c-0.828 0-1.5-0.672-1.5-1.5s0.672-1.5 1.5-1.5zM19 10.5c0.828 0 1.5 0.672 1.5 1.5s-0.672 1.5-1.5 1.5c-0.828 0-1.5-0.672-1.5-1.5s0.672-1.5 1.5-1.5z"></path>
</svg>
